svgs/regular/arrow-down-left-and-arrow-up-right-to-center.svg

<svg xmlns="http://www.w3.org/2000/svg" viewBox="0 0 512 512"><!--! Font Awesome Pro 6.1.1 by @fontawesome - https://fontawesome.com License - https://fontawesome.com/license (Commercial License) Copyright 2022 Fonticons, Inc. --><path d="M286.8 238.1C289.8 239.4 292.9 240 296 240h144c13.25 0 23.94-10.69 23.94-23.94S453.3 192 440 192h-86.06l135-135c9.375-9.375 9.375-24.56 0-33.94s-24.56-9.375-33.94 0L320 158.1V72c0-13.25-10.81-23.94-24.06-23.94S272 58.75 272 72v144c0 3.133 .6406 6.25 1.855 9.18C276.3 231 280.1 235.7 286.8 238.1zM225.2 273.9C222.2 272.6 219.1 272 216 272h-144c-13.25 0-23.94 10.69-23.94 23.94S58.75 320 72 320h86.06l-135 135c-9.375 9.375-9.375 24.56 0 33.94s24.56 9.375 33.94 0L192 353.9V440c0 13.25 10.81 23.94 24.06 23.94S240 453.3 240 440v-144c0-3.133-.6406-6.25-1.855-9.18C235.7 280.1 231 276.3 225.2 273.9z"/></svg>

<svg xmlns="http://www.w3.org/2000/svg" viewBox="0 0 512 512"><!--! Font Awesome Pro 6.4.2 by @fontawesome - https://fontawesome.com License - https://fontawesome.com/license (Commercial License) Copyright 2023 Fonticons, Inc. --><path d="M489 57c9.4-9.4 9.4-24.6 0-33.9s-24.6-9.4-33.9 0l-135 135V72c0-13.3-10.7-24-24-24s-24 10.7-24 24V216c0 13.3 10.7 24 24 24H440c13.3 0 24-10.7 24-24s-10.7-24-24-24H353.9L489 57zM23 455c-9.4 9.4-9.4 24.6 0 33.9s24.6 9.4 33.9 0l135-135V440c0 13.3 10.7 24 24 24s24-10.7 24-24V296c0-13.3-10.7-24-24-24H72c-13.3 0-24 10.7-24 24s10.7 24 24 24h86.1L23 455z"/></svg>
